X: 021
T: Swanee River
T: (Old Folks At Home)
S: Viola Ruth "Pioneer Western Folk Tunes" 1948 p.2 #1
R: march
Z: 2019 John Chambers <jc:trillian.mit.edu>
M: C|
L: 1/8
K: G
V: 1 name=" "
[|\
B4 MAMG MBMA | G2g2 eg3 | d4 B2G2 | (A>G) (AB) AMFMEMD |\
B4 AGBA | G2g2 ce3 | d2(BG) MA2MA2 | G6 g2 ||
f3g a2d2 | d3e d2g2 | g2e2 c2e2 | d3e .d.c.B.A |\
B4 MAMGMBMA | G2g2 eg3 | d2(BG) A2A2 | G6 z2 ||
